!!!!SEGMENT: Ver2015-In_te_Domine_speravi.krn
!!!id: Ver2015
!!!AGN: Motet
!!!SCT: Slim (1972)
!!!voices: 4
!!!COM: Philippe Verdelot
!!!OTL: In te, Domine, speravi
**kern	**kern	**kern	**kern	**kern
*part5	*part4	*part3	*part2	*part1
*staff5	*staff4	*staff3	*staff2	*staff1
*I"Bassus	*I"Tenor II	*I"Tenor I	*I"Altus	*I"Superius
*I'B	*I'T. II	*I'T. I	*I'A	*I'S
*clefF4	*clefGv2	*clefGv2	*clefGv2	*clefG2
*k[]	*k[]	*k[]	*k[]	*k[]
*C:	*C:	*C:	*C:	*C:
*M2/1	*M2/1	*M2/1	*M2/1	*M2/1
*met(C|)	*met(C|)	*met(O)	*met(C|)	*met(C|)
!!Section: Prima pars: In te, Domine, speravi
!!!OMD: Prima pars: In te, Domine, speravi
=1	=1	=1	=1	=1
0r	0r	0r	0A	0r
=2	=2	=2	=2	=2
0r	0r	0r	1c	0r
.	.	.	[1d	.
=3	=3	=3	=3	=3
0r	0r	0r	2d]	0a
.	.	.	2c	.
.	.	.	2d	.
.	.	.	2f	.
=4	=4	=4	=4	=4
0r	0r	0r	1e	1cc
.	.	.	1d	[1dd
=5	=5	=5	=5	=5
0r	0r	0r	2r	2dd]
.	.	.	1f	2cc
.	.	.	.	2dd
.	.	.	2f	2ff
=6	=6	=6	=6	=6
0r	0r	0r	2a	1ee
.	.	.	2.g	.
.	.	.	.	1dd
.	.	.	4f	.
.	.	.	4d	.
.	.	.	4e	.
=7	=7	=7	=7	=7
0r	0r	0r	4f	2r
.	.	.	4g	.
.	.	.	2.a	1cc
.	.	.	4g	.
.	.	.	4e	2cc
.	.	.	4f	.
=8	=8	=8	=8	=8
0r	0r	0r	2.g	2ee
.	.	.	.	2.dd
.	.	.	4f	.
.	.	.	4d	.
.	.	.	4e	4cc
.	.	.	[2f	4a
.	.	.	.	4b
=9	=9	=9	=9	=9
0r	1r	0r	2f]	4cc
.	.	.	.	4dd
.	.	.	2e	2.ee
.	[1A	.	2.c	.
.	.	.	.	4dd
.	.	.	.	[2cc
.	.	.	4B	.
=10	=10	=10	=10	=10
0r	1A]	0r	4c	2cc]
.	.	.	4d	.
.	.	.	2.e	4b
.	.	.	.	4a
.	1c	.	.	2g
.	.	.	4d	.
.	.	.	2c	[2a
=11	=11	=11	=11	=11
1r	1.d	0r	4B	2a]
.	.	.	4A	.
.	.	.	2B	2g#i
2r	.	.	1A	[1a
[2F	2c	.	.	.
=12	=12	=12	=12	=12
2F]	2d	0r	0r	1a]
2F	2f	.	.	.
2A	1e	.	.	1r
[2G	.	.	.	.
=13	=13	=13	=13	=13
4G]	1d	0r	2r	0r
4F	.	.	.	.
4D	.	.	1f	.
4E	.	.	.	.
2.F	2r	.	.	.
.	[2c	.	2f	.
4E	.	.	.	.
=14	=14	=14	=14	=14
1C	2c]	0r	2a	0r
.	2c	.	2.g	.
1G	2e	.	.	.
.	.	.	4a	.
.	[2d	.	2b-i	.
=15	=15	=15	=15	=15
2F	4d]	0r	2a	0r
.	4c	.	.	.
2.G	4B	.	1g	.
.	4A	.	.	.
.	4B	.	.	.
4F	4c	.	.	.
2D	[2d	.	2f	.
=16	=16	=16	=16	=16
2E	4d]	0r	1g	2r
.	4B	.	.	.
2C	1c	.	.	1cc
1F	.	.	1a	.
.	4B	.	.	2cc
.	4A	.	.	.
=17	=17	=17	=17	=17
1G	1B	0r	1g	2ee
.	.	.	.	2.dd
1D	1d	.	1f	.
.	.	.	.	4cc
.	.	.	.	[2a
=18	=18	=18	=18	=18
1A	2.c	0r	2.e	4a]
.	.	.	.	4b
.	.	.	.	4cc
.	4d	.	4f	4a
2G	2e	.	2g	2b
2F	[2f	.	2c	[2a
=19	=19	=19	=19	=19
1B-i	4f]	0r	2d	4a]
.	4e	.	.	4g
.	1d	.	1f	4g
.	.	.	.	8fL
.	.	.	.	8gJ
[1A	.	.	.	[1a
.	4c	.	4e	.
.	4B	.	4d	.
=20	=20	=20	=20	=20
1A]	2c	0r	1e	1a]
.	2A	.	.	.
2.G	2B	.	2r	1r
.	[2d	.	[2g	.
4F	.	.	.	.
=21	=21	=21	=21	=21
1E	2d]	0r	2g]	1r
.	2c#i	.	2g	.
[1D	[1d	.	2.f	2r
.	.	.	.	[2dd
.	.	.	4e	.
=22	=22	=22	=22	=22
1D]	1d]	0r	2d	2dd]
.	.	.	2f	2dd
1r	1r	.	2e	2.cc
.	.	.	4A	.
.	.	.	4B	4b
=23	=23	=23	=23	=23
0r	1r	0r	4c	2a
.	.	.	4d	.
.	.	.	4e	2cc
.	.	.	4f	.
.	2r	.	2g	2b
.	[2d	.	[2f	[2a
=24	=24	=24	=24	=24
0r	2d]	0r	2f]	2a]
.	2d	.	4e	4g
.	.	.	4d	4f
.	2.c	.	1e	2g
.	.	.	.	[2cc
.	4B	.	.	.
=25	=25	=25	=25	=25
1r	2A	0r	1e	4cc]
.	.	.	.	4b
.	2c	.	.	4g
.	.	.	.	4a
2r	2B	.	[1d	4b
.	.	.	.	4cc
[2G	4G	.	.	[2dd
.	4A	.	.	.
=26	=26	=26	=26	=26
2G]	4B	0r	1d]	4dd]
.	4c	.	.	4cc
2G	1d	.	.	2b
2.F	.	.	[1f	2a
.	2c	.	.	2cc
4E	.	.	.	.
=27	=27	=27	=27	=27
2D	4d	0r	2f]	2b
.	4c	.	.	.
2F	4B	.	2d	1a
.	4A	.	.	.
1E	1B	.	1e	.
.	.	.	.	2g#i
=28	=28	=28	=28	=28
1r	1A	[0A	1c	[0a
1F	1c	.	1r	.
=29	=29	=29	=29	=29
1D	1d	0A_	1.f	0a]
1D	1d	.	.	.
.	.	.	2d	.
=30	=30	=30	=30	=30
1AA	1c	0A_	1e	1r
2r	2r	.	1c	1cc
2AA	2e	.	.	.
=31	=31	=31	=31	=31
2D	2f	0A_	0r	2dd
2AA	2e	.	.	2cc
1D	1f	.	.	1dd
=32	=32	=32	=32	=32
0AA	1e	0A_	1r	[0cc
.	2r	.	2r	.
.	2a	.	2e	.
=33	=33	=33	=33	=33
0r	2a	0A]	2f	0cc]
.	2a	.	2e	.
.	1a	.	1f	.
=34	=34	=34	=34	=34
1r	0g	[0c	1e	1r
2r	.	.	2r	2r
2E	.	.	2e	2g
=35	=35	=35	=35	=35
2F	0r	0c_	2A	2a
2E	.	.	2e	2g
1F	.	.	1A	1a
=36	=36	=36	=36	=36
1E	2r	0c]	1e	1g
.	2e	.	.	.
2r	2f	.	1A	[1cc
[2A	2e	.	.	.
=37	=37	=37	=37	=37
2A]	1f	[0c	1a	1cc]
2F	.	.	.	.
1c	1e	.	1g	1cc
=38	=38	=38	=38	=38
1F	1a	0c_	0f	1cc
2r	2f	.	.	1a
[2F	[2a	.	.	.
=39	=39	=39	=39	=39
2F]	2a]	0c]	0r	1r
2E	2.g	.	.	.
1A	.	.	.	2r
.	8f#iL	.	.	.
.	8eJ	.	.	.
.	2f#i	.	.	2cc
=40	=40	=40	=40	=40
0G	0g	[0d	1r	2b
.	.	.	.	2g
.	.	.	2r	1dd
.	.	.	2g	.
=41	=41	=41	=41	=41
2r	1r	0d_	2f	1dd
2G	.	.	2d	.
2F	2r	.	1a	2.ff
2D	2d	.	.	.
.	.	.	.	4ee
=42	=42	=42	=42	=42
1G	2B	0d]	2r	4dd
.	.	.	.	4cc
.	2G	.	2d	2.dd
1r	1g	.	2B	.
.	.	.	.	4cc
.	.	.	2G	4b
.	.	.	.	4a
=43	=43	=43	=43	=43
2r	1G	[0d	1g	1b
2G	.	.	.	.
2F	2A	.	1r	1a
2D	2A	.	.	.
=44	=44	=44	=44	=44
1G	1.B	0d_	0g	0r
1G	.	.	.	.
.	4A	.	.	.
.	4G	.	.	.
=45	=45	=45	=45	=45
2.B-X	2.d	0d]	1f	0r
4A	4c	.	.	.
4G	4B	.	2.g	.
4F	4A	.	.	.
[2G	[2B-i	.	.	.
.	.	.	4f	.
=46	=46	=46	=46	=46
4G]	4B-]	0r	4e	1r
4F	4A	.	4d	.
4E	4G	.	1d	.
4D	4F	.	.	.
1E	2.G	.	.	[1g
.	.	.	2c#i	.
.	4A	.	.	.
=47	=47	=47	=47	=47
0D	1B-X	0r	[0d	1g]
.	1A	.	.	1f
=48	=48	=48	=48	=48
0r	0G	0r	0d]	0b-i
=49	=49	=49	=49	=49
1r	1F	[0d	0r	1.a
[1G	[1B-i	.	.	.
.	.	.	.	4g
.	.	.	.	4f
=50	=50	=50	=50	=50
1G]	1B-]	0d_	2.d	1g
.	.	.	4e	.
1F	1A	.	4f	1a
.	.	.	4g	.
.	.	.	[2a	.
=51	=51	=51	=51	=51
0B-X	2r	0d]	2a]	0r
.	1d	.	4g	.
.	.	.	4f	.
.	.	.	1g	.
.	4c	.	.	.
.	4B-i	.	.	.
=52	=52	=52	=52	=52
2A	2c	[0e	1a	1r
2.c	2A	.	.	.
.	[1c	.	1A	[1a
4B	.	.	.	.
[2A	.	.	.	.
=53	=53	=53	=53	=53
2A]	2c]	0e_	1r	1a]
4G	4B	.	.	.
4F	4A	.	.	.
1E	1B	.	2r	1g
.	.	.	[2e	.
=54	=54	=54	=54	=54
1r	1A	0e]	2e]	0cc
.	.	.	2c	.
1C	1G	.	[1g	.
=55	=55	=55	=55	=55
1G	2r	[0d	1g]	1b
.	2G	.	.	.
1D	1A	.	1f	[1a
=56	=56	=56	=56	=56
1.A	1.c	1d]	0e	1a]
.	.	[1c	.	1cc
2G	2B	.	.	.
=57	=57	=57	=57	=57
1F	1A	0c]	1f	2cc
.	.	.	.	2dd
1E	1G	.	1g	1ee
=58	=58	=58	=58	=58
1D	1A	[0d	1.f	2.ff
.	.	.	.	4ee
1D	2r	.	.	4dd
.	.	.	.	4cc
.	2A	.	2f	[2dd
=59	=59	=59	=59	=59
1G	1B	0d_	1g	4dd]
.	.	.	.	4cc
.	.	.	.	4b
.	.	.	.	4a
1G	1G	.	1g	2b
.	.	.	.	2b
=60	=60	=60	=60	=60
1D	1A	0d]	2f	0a
.	.	.	2d	.
2r	1r	.	2d	.
2D	.	.	2d	.
=61	=61	=61	=61	=61
2D	0r	[0A	1.f	0r
2D	.	.	.	.
[1F	.	.	.	.
.	.	.	4e	.
.	.	.	4d	.
=62	=62	=62	=62	=62
2F]	0r	0A_	2c	0r
4E	.	.	2d	.
4D	.	.	.	.
2C	.	.	2e	.
[2D	.	.	[2f	.
=63	=63	=63	=63	=63
2D]	1r	0A]	4f]	2r
.	.	.	4e	.
2C#i	.	.	1e	2a
1D	2r	.	.	2a
.	2A	.	2d	2a
=64	=64	=64	=64	=64
0AA	2A	0r	[0e	1.cc
.	2A	.	.	.
.	[1c	.	.	.
.	.	.	.	4b
.	.	.	.	4a
=65	=65	=65	=65	=65
0r	2c]	0r	0e_	2g
.	4B	.	.	2a
.	4A	.	.	.
.	2G	.	.	2b
.	[2A	.	.	[2cc
=66	=66	=66	=66	=66
1r	2A]	0r	0e]	4cc]
.	.	.	.	8bL
.	.	.	.	8aJ
.	2G#i	.	.	2b
2r	1A	.	.	1cc
2A	.	.	.	.
=67	=67	=67	=67	=67
2G	2E	0B	0g	0r
2E	2e	.	.	.
[1G	2d	.	.	.
.	2B	.	.	.
=68	=68	=68	=68	=68
2G]	0d	0B	1g	0r
4F	.	.	.	.
4E	.	.	.	.
2D	.	.	1f	.
2D	.	.	.	.
=69	=69	=69	=69	=69
0C	0r	0c	2e	1r
.	.	.	2a	.
.	.	.	2g	2r
.	.	.	2e	2ee
=70	=70	=70	=70	=70
0G	0r	[0d	1.g	2dd
.	.	.	.	2b
.	.	.	.	[1dd
.	.	.	4f	.
.	.	.	4e	.
=71	=71	=71	=71	=71
0r	0r	0d]	2f	2dd]
.	.	.	1g	4cc
.	.	.	.	4b
.	.	.	.	2a
.	.	.	2f#i	2a
=72	=72	=72	=72	=72
0r	1r	0e	1g	0g
.	[1g	.	1r	.
=73	=73	=73	=73	=73
1.G	2g]	[0B	0r	0r
.	2g	.	.	.
.	2e	.	.	.
2G	2d	.	.	.
=74	=74	=74	=74	=74
2E	2e	0B]	0r	0r
2D	2f	.	.	.
2E	2.g	.	.	.
2F	.	.	.	.
.	4f	.	.	.
=75	=75	=75	=75	=75
2.G	2e	0r	0r	0r
.	2d	.	.	.
4F	.	.	.	.
1E	1g	.	.	.
=76	=76	=76	=76	=76
0D	0f	0r	2r	2.dd
.	.	.	1d	.
.	.	.	.	4cc
.	.	.	.	2b
.	.	.	2d	2a
=77	=77	=77	=77	=77
0r	0r	0r	2B	2b
.	.	.	2A	2cc
.	.	.	2B	2dd
.	.	.	2c	[2ee
=78	=78	=78	=78	=78
0r	1r	0r	1d	4ee]
.	.	.	.	4dd
.	.	.	.	1dd
.	[1g	.	1e	.
.	.	.	.	2cc#i
=79	=79	=79	=79	=79
1.G	2g]	0r	1d	1dd
.	2f	.	.	.
.	2e	.	1r	1r
2F	2d	.	.	.
=80	=80	=80	=80	=80
2E	2e	[0B	0r	0r
2D	2f	.	.	.
2E	2.g	.	.	.
2F	.	.	.	.
.	4f	.	.	.
=81	=81	=81	=81	=81
1G	2e	0B]	0r	0r
.	2d	.	.	.
1E	1g	.	.	.
=82	=82	=82	=82	=82
0D	0f	0d	1r	2r
.	.	.	.	2a
.	.	.	2r	2a
.	.	.	2A	2a
=83	=83	=83	=83	=83
0r	0r	[0e	2A	2.cc
.	.	.	2A	.
.	.	.	.	4b
.	.	.	2.c	2a
.	.	.	.	2g
.	.	.	4B	.
=84	=84	=84	=84	=84
0r	0r	0e]	2A	2a
.	.	.	2G	2.b
.	.	.	1A	.
.	.	.	.	4a
.	.	.	.	[2a
=85	=85	=85	=85	=85
2r	1r	0d	1B	2a]
2G	.	.	.	2g#i
2F	2r	.	1A	1a
2D	2f	.	.	.
=86	=86	=86	=86	=86
1A	2e	0c	2r	1r
.	2c	.	2f	.
1r	1g	.	2e	1cc
.	.	.	2c	.
=87	=87	=87	=87	=87
1r	1G	0B	1g	0dd
2r	[1d	.	1g	.
2G	.	.	.	.
=88	=88	=88	=88	=88
2F	1d]	[0A	0a	1ff
2D	.	.	.	.
1A	[1c	.	.	1ee
=89	=89	=89	=89	=89
1F	2c]	0A]	1a	1ff
.	2A	.	.	.
2D	1d	.	1f	2ff
2D	.	.	.	2ff
=90	=90	=90	=90	=90
1G	1B	0G	0g	1dd
1E	1c	.	.	1ee
=91	=91	=91	=91	=91
1.D	2.d	[0Al	2.f	2.ff
.	4e	.	4g	4ee
.	[1f	.	[1al	4dd
.	.	.	.	4cc
4C	.	.	.	[2dd
4BB	.	.	.	.
=92	=92	=92	=92	=92
[0AAl	2f]	0A_	0a_	2dd]
.	4e	.	.	4cc#i
.	4d	.	.	4b
.	[1el	.	.	[1cc#Xl
=	=	=	=	=
00AA]	00e]	00A]	00a]	00cc#]
=||	=||	=||	=||	=||
*M2/1	*M2/1	*M2/1	*M2/1	*M2/1
*met(C|)	*met(C|)	*met(C|)	*met(C|)	*met(C|)
!!Section: Secunda pars: Educes me
!!!OMD: Secunda pars: Educes me
0r	0A	0r	0r	0r
=93	=93	=93	=93	=93
0D	1A	0r	0f	0a
.	1A	.	.	.
=94	=94	=94	=94	=94
1D	0d	0r	1f	1a
1D	.	.	1f	1a
=95	=95	=95	=95	=95
1.G	2r	0r	1.g	1.b
.	2d	.	.	.
.	1d	.	.	.
2G	.	.	2g	2b
=96	=96	=96	=96	=96
1G	1d	0r	1g	1b
1G	[1e	.	1g	1b
=97	=97	=97	=97	=97
0A	2e]	0r	0e	0cc
.	8eL	.	.	.
.	8d	.	.	.
.	8c	.	.	.
.	8BJ	.	.	.
.	1c	.	.	.
=98	=98	=98	=98	=98
0D	1d	0r	0f	1a
.	2r	.	.	2r
.	2d	.	.	2a
=99	=99	=99	=99	=99
0r	2d	0r	1r	2b
.	2e	.	.	2cc
.	2.f	.	2r	2.dd
.	.	.	2d	.
.	4e	.	.	4cc
=100	=100	=100	=100	=100
2r	2d	0r	2d	2b
2C	2c	.	2e	1a
2D	1B	.	2f	.
2E	.	.	2e	2g#i
=101	=101	=101	=101	=101
2.F	0A	[0A	2c	[0a
.	.	.	1f	.
4E	.	.	.	.
2D	.	.	.	.
2C	.	.	2e	.
=102	=102	=102	=102	=102
1D	1r	0A]	1d	0a]
1AA	2r	.	1c	.
.	[2e	.	.	.
=103	=103	=103	=103	=103
2r	2e]	0c	2r	1r
1A	2e	.	1e	.
.	1e	.	.	[1a
2A	.	.	2e	.
=104	=104	=104	=104	=104
1A	1c	0c	1e	2a]
.	.	.	.	2a
1F	1A	.	2.f	1a
.	.	.	4g	.
=105	=105	=105	=105	=105
1.D	1r	0d	0a	1f
.	1A	.	.	1d
2D	.	.	.	.
=106	=106	=106	=106	=106
2.D	1.a	0d	0r	2.f
4E	.	.	.	4g
2F	.	.	.	2a
2G	2g	.	.	2b-i
=107	=107	=107	=107	=107
1D	2f	0r	0r	2a
.	4e	.	.	2.dd
.	4d	.	.	.
1A	1e	.	.	.
.	.	.	.	4cc#i
.	.	.	.	4cc#i
.	.	.	.	8bL
.	.	.	.	8cc#iJ
=108	=108	=108	=108	=108
1r	1d	0d	1r	0dd
1D	1r	.	1A	.
=109	=109	=109	=109	=109
1.A	0r	0e	2.c	0r
.	.	.	4B	.
.	.	.	2c	.
2G	.	.	[2B	.
=110	=110	=110	=110	=110
2F	0r	1d	4B]	1r
.	.	.	4A	.
4E	.	.	1A	.
4D	.	.	.	.
1E	.	1c	.	1ee
.	.	.	2G	.
=111	=111	=111	=111	=111
0D	1r	0d	0A	2.ff
.	.	.	.	4ee
.	1A	.	.	4dd
.	.	.	.	4cc
.	.	.	.	2dd
=112	=112	=112	=112	=112
0r	1.a	0A	0r	2cc
.	.	.	.	4a
.	.	.	.	4b
.	.	.	.	4cc
.	.	.	.	4dd
.	2g	.	.	[2ee
=113	=113	=113	=113	=113
0r	2f	0r	0r	4ee]
.	.	.	.	4dd
.	4e	.	.	1dd
.	4d	.	.	.
.	1e	.	.	.
.	.	.	.	2cc#i
=114	=114	=114	=114	=114
2r	2d	1B	2r	0dd
2G	2d	.	2g	.
2G	2d	1B	2g	.
2G	2d	.	2g	.
=115	=115	=115	=115	=115
1C	1e	1c	1g	1r
2G	1B	[1d	[1g	2r
2G	.	.	.	2b
=116	=116	=116	=116	=116
2G	2r	1d]	1g]	2b
2G	2g	.	.	2b
1C	2g	1e	1r	1cc
.	2g	.	.	.
=117	=117	=117	=117	=117
0G	1g	0B	1r	0dd
.	1d	.	[1g	.
=118	=118	=118	=118	=118
1.c	1.e	0r	2g]	1.cc
.	.	.	2g	.
.	.	.	[1g	.
2G	2d	.	.	2b
=119	=119	=119	=119	=119
1G	0d	1r	1g]	0b
2r	.	[1B	1r	.
2G	.	.	.	.
=120	=120	=120	=120	=120
1G	0r	1B]	2r	2r
.	.	.	2d	2g
1D	.	1d	1f	2a
.	.	.	.	2b
=121	=121	=121	=121	=121
1.A	0r	0e	2e	1.cc
.	.	.	1a	.
2E	.	.	2g	2cc
=122	=122	=122	=122	=122
1G	0r	1d	1g	1b
1A	.	1c	1f	1a
=123	=123	=123	=123	=123
1E	1r	1B	1e	1g
2r	2r	[1A	1r	1r
[2F	[2c	.	.	.
=124	=124	=124	=124	=124
2F]	2c]	1A]	0r	0r
2F	2A	.	.	.
2G	2B	1G	.	.
2E	2c	.	.	.
=125	=125	=125	=125	=125
0D	0d	0A	2r	2r
.	.	.	1f	1a
.	.	.	2f	2a
=126	=126	=126	=126	=126
1r	1r	1r	2g	2b
.	.	.	2e	2cc
[1G	2r	[1B	1d	1dd
.	[2d	.	.	.
=127	=127	=127	=127	=127
2G]	4d]	1B]	1.g	2.dd
.	4d	.	.	.
2G	2d	.	.	.
.	.	.	.	4dd
1G	1B	1d	.	2dd
.	.	.	2g	[2b
=128	=128	=128	=128	=128
1E	1.G	0e	1g	2b]
.	.	.	.	1g
1C	.	.	2e	.
.	2G	.	2c	[2cc
=129	=129	=129	=129	=129
0r	1G	1d	1g	2cc]
.	.	.	.	2.b
.	1A	1c	2f	.
.	.	.	.	4a
.	.	.	[2e	[2a
=130	=130	=130	=130	=130
2r	1E	1B	4e]	2a]
.	.	.	4d	.
2E	.	.	2e	2g#i
2.F	1r	[1A	2c	[1a
.	.	.	[2f	.
4E	.	.	.	.
=131	=131	=131	=131	=131
2D	2r	1A]	2f]	1a]
2C	2c	.	2.e	.
1BB	2.d	1G	.	1r
.	.	.	4d	.
.	.	.	[2d	.
.	4e	.	.	.
=132	=132	=132	=132	=132
1AA	4f	[0Al	2d]	1r
.	4d	.	.	.
.	2e	.	2c	.
1D	2f	.	4d	2r
.	.	.	4e	.
.	2d	.	4f	2dd
.	.	.	4g	.
=133	=133	=133	=133	=133
2.F	2r	0A_	0a	2cc
.	2c	.	.	1ff
4E	.	.	.	.
2D	2d	.	.	.
2C	2e	.	.	[2ee
=134	=134	=134	=134	=134
1D	2.f	0A_	[0al	4ee]
.	.	.	.	4dd
.	.	.	.	1dd
.	8eL	.	.	.
.	8dJ	.	.	.
1AA	1e	.	.	.
.	.	.	.	2cc#i
=135	=135	=135	=135	=135
00Dl	00dl	00A]	00a]	00ddl
==	==	==	==	==
*-	*-	*-	*-	*-
!!!system-decoration: [*]
!!!RDF**kern: i = editorial accidental
!!!RDF**kern: l = terminal long
!!!ENC: Benjamin Ory
!!!END: 2022/5/10
!!!EED: Benjamin Ory
!!!EEV: 2022/05/10
!!!YEC: Copyright 2022 Benjamin Ory, All Rights Reserved
!!!ONB: Translated from MusicXML on 2022/05/10
